X:1
T:Title
%%score { ( 1 3 ) | ( 2 4 ) }
L:1/8
Q:1/4=107
M:6/8
K:Db
V:1 treble nm="Grand Piano"
V:3 treble 
V:2 bass 
V:4 bass 
V:1
 [FA]2 [Fd] [Gc]2 [CGB] | [DFA]3 [A,DF]3 | [A,CE]2 [G,CE] [F,D]2[K:treble] [A,CE] | [A,DF]6 | %4
w: Oran~Williams * * *||||
 [EG]2 [=DF] [EG]2 [FA] | [GB]2 [G=A] [GB]2 [Bd] | [Ac]2 [GB] [FA]2 [EG] | [DF]6 | %8
w: ||||
 [Fd]2 [Ec] [Fd]2 [Ge] | [Fd]3 [DFA]3 | [A,DF]2 [A,EG] [DFA]2 [DA_c] | [DGB]6 | %12
w: ||||
 [DGB]2 [DBd] [DAc]2 [DGB] | [DFA]3 [Fd]3 | [Gc]2 [GB] [Gc]2 [GA] | [Fd]6 | e3 c3 | B3 A3 | %18
w: ||||||
 [Fd]2 [Ec] [Fd]2 [Ge] | [Fd]3 [FA]3 | B3 d3 | e3 f3 | z3 .c3 |[M:15/16] e3/2-e3/2-e3/2- e3 | %24
w: ||||||
[M:3/4] [Fd]2 [Ec] [Fd]2 [Ge] | [Fd]3 [DFA]3 | [A,DF]2 [A,EG] [DFA]2 [DA_c] | [DGB]6 | %28
w: ||||
 [DGB]2 [DBd] [DAc]2 [DGB] | [DFA]3 [Fd]3 | [Gc]2 [GB] [Gc]2 [GA] |[M:7/4] [Fd]6 z2 z2 z4 |] %32
w: ||||
V:2
 [D,D]2 [D,A,] [D,B,]2 D, | D,3 D,3 | A,,2 A,, B,,2 A,, | D,6 | [A,,A,]2 [A,,A,] [A,,A,]2 [A,,A,] | %5
 [A,,A,]2 [A,,A,] [A,,A,]2 [A,,A,] | [A,,A,]2 [A,,A,] [A,,A,]2 [A,,A,] | [D,A,]6 | %8
 [D,A,]2 [D,A,] [D,A,]2 [D,A,] | [D,A,]3 D,3 | D,2 D, D,2 F, | G,6 | G,2 G, G,2 G, | D,3 [D,A,]3 | %14
 [A,,A,]2 [A,,A,] [A,,A,]2 [A,,A,] | [D,A,]6 | A,,2 A,, A,,2 A,, | A,,2 A,, A,,B,,C, | %18
 [D,A,]2 [D,A,] [D,A,]2 [D,A,] | [D,A,]3 [D,D]3 | [G,DG]2 [G,D] [F,D]2 [F,D] | %21
 [E,C]2 [E,C] [D,D]2 [D,D] | z2[K:treble] B E,3 | %23
[M:15/16] [A,CG]->[A,CG][A,C][K:bass][A,C]3/2- [A,C]3 |[M:3/4] [D,A,]2 [D,A,] [D,A,]2 [D,A,] | %25
 [D,A,]3 D,3 | D,2 D, D,2 F, | G,6 | G,2 G, G,2 G, | D,3 [D,A,]3 | %30
 [A,,A,]2 [A,,A,] [A,,A,]2 [A,,A,] |[M:7/4] [D,A,]6 z2 z2 z4 |] %32
V:3
 x6 | x6 | x5[K:treble] x | x6 | x6 | x6 | x6 | x6 | x6 | x6 | x6 | x6 | x6 | x6 | x6 | x6 | %16
 [CG]2 [CG] [EG]2 [EG] | [CG]2 [CG] [CG]2 [A,G] | x6 | x6 | z2 G A2 A | A2 A A2 A | %22
 .[=Ge]3 [EG]2- [EGd] |[M:15/16] z3/2 z/ GG3/2- G3 |[M:3/4] x6 | x6 | x6 | x6 | x6 | x6 | x6 | %31
[M:7/4] x14 |] %32
V:4
 x6 | x6 | x6 | x6 | x6 | x6 | x6 | x6 | x6 | x6 | x6 | x6 | x6 | x6 | x6 | x6 | x6 | x6 | x6 | %19
 x6 | x6 | x6 | [E,D]3[K:treble] z3 |[M:15/16] x3[K:bass] x9/2 |[M:3/4] x6 | x6 | x6 | x6 | x6 | %29
 x6 | x6 |[M:7/4] x14 |] %32

